X:1
T:Symphony for Solo Piano, 4th Movement
T:de “Douze Études dans les tons Mineurs” Opus 39 No. 7 in E♭ Minor
T:Charles-Valentin Alkan (1813 - 1888)
%%score { ( 1 3 4 ) | ( 2 5 ) }
L:1/8
Q:1/2=192
M:4/4
K:Gb
V:1 treble nm="Piano"
V:3 treble 
V:4 treble 
V:2 bass 
V:5 bass 
V:1
"^Presto"!p! z2 | z8 | z8 | z8 | z4 z2 B2- | B8- | B8 | (=d6 f2) | e6!p! (_d_c | %9
 .B2) (_dc .B2) (dc | .B2) (_f=G .A2) (__e=F | ._G2) (d=E .F2) (_c=D | _E=G=A=A, .B,2)!p! z2 | z8 | %14
 z8 | z8 | z4 z2 ([Bb]2 | [dd']6 [cc']2 | [Bb]6 [Gg]2) | ([Ff]6 [Aa]2 | [Gg]6)!p! (fe | %21
 .d2) (fe .d2) (fe | .d2) (__aB .c2) (__gA | .__B2) (_f=G .A2) (__e=F | ._G2) (d=E F=A_c=D) | %25
!p! E_GB=D E_GBD | E_GBB, EGB=d | egb=d egbd | egbB egb=d' | (e'bc'g) (_d'abf) | (c'gae) (bfgd) | %31
 eBcG dABF | cGAE BFGD | B,DF=A, B,DFA, | B,DFF, B,DF=A | Bdf=A BdfA | BdfF Bdf=a | bfgd _aef=c | %38
 gdeB f=cdA | BFGD AEF=C | GDEB, F=CDA, |[K:bass] _CG,__A,B, CG,A,B, | CE,G,B,[K:treble] CEGB | %43
 cG__AB cGAB | cEGB cegb | c'g__d'__a __b_fg__d | _e__B__dG __BEG__D | =c_G_d=G _B_F=GD | %48
 _FB,D=G,[K:bass] B,_F,=G,D, ||[K:treble] [Dd]8- | [Dd]4 [Dd]4 | ([DGBd]4 [Gg]4- | [Gg]4 [DGBd]4) | %53
 ([DAcd]4 [Acda]4- | [Acda]4 [DAcd]4) | [DGBd]4 [Bdgb]4- | [Bdgb]4 (([DG-Bd]4 | %57
 [=CG=c]4)) [_CG_c]4 | [B,GB]4 (([_FG-_f]4 | [EGe]4)) [__EG__e]4 | [DGd]4 ((([Gd-g]4 | %61
 [=Fd=f]4)) [_Fd_f]4 | [E_Bde]4 [Bdeb]4) | (f6 e2) | (__e6 d2) | (d4 =c4 | d4 =d4- | d4 e4) | %68
 (e4 =d4 | e4 =e4- | e4 f4) | (f4 =e4 | f4 b4 | a4 g4 | e4 c4 | A4 d4) | (d4 =c4 | d4 g4 | =f4 e4 | %79
 c4 A4 | F4 B4) ||!p! z8 | z8 | z8 | z4 z2 (B2 | !>!b6 a2) | (g6 e2) | (=d6 f2) | e6 (_d_c | %89
 .B2) (_dc .B2) (dc | .B2) (_f=G .A2) (__e=F | ._G2) (d=E .F2) (_c=D | _E=G=A=A, .B,2)!p! z2 | z8 | %94
 z8 | z8 | z4 z2 |[K:E]!f! ([^A^a]2 |!mf! [Bb]6 [=A=a]2) | [Gg]6 [Ee]2 | ([Dd]6 [Ff]2 | %101
 [Ee]6 [Cc]2) | (B6 A2) | (G6 E2) | (D6 F2) | (E6 C2) |[K:bass]!p! (B,6 A,2) | (.[E,G,]4 .[E,A,]4 | %108
 .[E,B,]4 .[E,C]4) | (^G,4 F,4) | (B,6 A,2) | G,4 F,4 | (B,6 A,2) || %113
[K:treble]!p! .E2 .B,2 .F2 .B,2 | .G2 .B,2 .A2 .B,2 | .B2 (^AB .=d2) .c2 | .B2 .=A2 .G2 .F2 | %117
 .[G,^E]2 z2 z4 | (!>![Bg]8- | [Bg]8 | T[GB]8 | .A2) z2 z4 | .F2 .C2 .G2 .C2 | .A2 z2 z4 | %124
 .G2 z2 .C2 z2 | .[^A,^^F]2 z2 z4 | !>![c^a]8- | [ca]8 | (T[^Ac]8 | .G2) .^A2 .B2 .c2 | %130
 .[Bd]2 .[GB]2 .[DG]2 .[B,D]2 | .[^^G,^B,]2 z2 z4 | (!>!T[^Bd]8 | .c2) z2 .^A2 .^B2 | %134
 .[c^e]2 .[^Ac]2 .[^EA]2 .[CE]2 | .[^^A,^^C]2 z2 z4 | (T[^^c^e]8 |!<(! .^B2) .^^c2 .d2 .^e2 | %138
 .^f2 .d2!<)! .^B2 .[G,G]2 | .[Cc]2 .[G,G]2 .[Dd]2 .[G,G]2 | .[=E=e]2 .[G,G]2 .[Ff]2 .[G,G]2 | %141
 .[Gg]2 (fg .[=A=a]2) .[Gg]2 | .[Aa]2 (ga .[Bb]2) .[Aa]2 | .[Bb]2 (ab .[cc']2) .[Bb]2 | %144
 .[cc']2 (bc' .[dd']2) .[cc']2 | .[dd']2 .[cc']2 .[ee']2 .[dd']2 | %146
 .[ff']2 .[ee']2 .[gg']2 .[ff']2 |!ff! .[aa']2 .[gg']2 .[aa']2 .[gg']2 | %148
 .[aa']2 .[gg']2 .[aa']2 .[gg']2 ||[K:Gb] .[_b_b']2 .[=a=a']2 .[bb']2 .[aa']2 | %150
 .[bb']2 .[=a=a']2 .[bb']2 .[aa']2 ||!p! (b6 _a2) | (g6 e2) | (=d6 f2) | (e6 _d_c | %155
!p! .B2) _dc .B2 dc | .B2 _f=G .A2 __e=F | ._G2 d=E .F2 (_c=D | _E=G=A=A, .B,2) z2 | z4 z2 .B,2 | %160
 .E2 .B,2 .F2 .B,2 | .G2 .B,2 .A2!mf! .b2 | .e'2 .b2 .g'2!p! [Bb]2 | (a8 | d8) | ([Ff]6 [Aa]2 | %166
 [Gg]6 fe |!p! .d2) (fe .d2) (fe | .d2) __aB .c2 __gA | .__B2 _f=G .A2 __e=F | _G2 d=E F=A_c=D | %171
 E_GB=D EGBD | EGBB, EGB=d | egb=d egbd | egbB egb=d' |!>(! e'bc'g _d'abf | c'gae bfg!>)!d | %177
!>(! eBcG dABF | cGAE BFG!>)!D ||[K:C] =E^G=B^D EGBD | E^GBB, EGB^d | e^gb^d egbd | e^gbB egb^d' | %183
!>(! e'b^c'^g ^d'ab^f | ^c'^gae b^fg!>)!^d |!>(! eB^c^G ^dAB^F | ^c^GAE B^FG!>)!^D | =FA=cE FAcE | %188
 FAcC FAce | fac'e fac'e | fac'c fac'e' |!>(! f'c'd'a e'_bc'g | d'a_bf c'ga!>)!e | %193
 .a2 .f2 .g2 .e2 | .f2 .d2 .e2 .c2 | d'a_bf c'gae | _bfgd aefc | .f2 .d2 .e2 .c2 | %198
 .d2 ._B2 .c2 .A2 | _bfgd aefc | gde_B fcdA | .d2 ._B2 .c2 .A2 | ._B2 .G2 .A2 .F2 || %203
!ped! e'!ped!=bc'g c'^fge | g^dec eBcG!ped-up! | g'!ped!^d'e'b e'=bc'g | %206
 _b'^f'g'd' g'^d'e'c'!ped-up! | e'!ped!^b^c'a c'^gae | a^de^c e^BcA!ped-up! | %209
 a'!ped!^d'e'^c' e'^bc'a | g'^d'e'^c' e'^bc'g!ped-up! | f'!ped!^c'd'a d'^gaf | aefd f^cdA!ped-up! | %213
 a'!ped!e'f'd' f'^c'd'a |!8va(! c''^g'a'f' a'e'f'd'!ped-up! | ^f'!ped!^^c'^d'b d'^ab^f | %216
 b^e^f^d f^^cdB!ped-up! | b'!ped!^e'^f'^d' f'^^c'd'b | a'^e'^f'^d' f'^^c'd'b!ped-up! | %219
 g'!ped!^d'e'b!8va)! z2 z2 | (G^DEG Begb!ped-up! | g'!ped!^d'e'b) z2 z2 | G^DEG Begb!ped-up! | %223
 g'!ped!^d'e'b z2 z2 | G^DEG Begb!ped-up! | g'!ped!^d'e'b z2 z2 | G^DEG Begb!ped-up! | %227
!ped!!8va(! c''!ped!^g'a'e'!8va)! z2 z2 | c^GAE z2 z2 | (cABF _BFAC | _AF=GC ^FC=FA,)!ped-up! | %231
!8va(! e''!ped!^b'^c''g'!8va)! z2 z2 | e^B^cG z2 z2 | (=BG^AE =AE^G^C | =GE^F^C =F^CE^A,)!ped-up! | %235
!ff!"^con impeto"!8va(! b'!ped!^d'^f'b b'=f'^g'b | ^a'e'=g'^a =a'^d'^f'=a!ped-up! | %237
 ^g'!ped!=d'=f'^g =g'^c'e'=g | ^f'=c'^d'^f !^!c''d'f'c'!8va)!!ped-up! | e'!ped!^a^c'e ^d'=a=c'^d | %240
 =d'^gb=d ^c'=g^a^c!ped-up! | !^!g'!ped!^a^c'g b=f^gB | ^ae=g^A =a^df=A!ped-up! | %243
 e'!ped!^ab^g z2 z2 | E^A,B,E ^GBe^g!ped-up! | f'!ped!^c'd'a f^cdA | %246
 z2 [ff']2 [gg']2 [aa']2!ped-up! | e'!ped!^ab^g z2 z2 | E^A,B,E ^GBe^g!ped-up! | %249
 f'!ped!^c'd'a f^cdA | z2 [fd'f']2 [ge'g']2 [af'a']2!ped-up! |!ff! e'!ped!^ab^g e'abg | %252
 e'^ab^g e'abg!ped-up! | =d'!ped!_b_c'_a d'bc'a | d'_b_c'_a d'bc'a!ped-up! || %255
[K:Gb]!ff! e'=ab_g!8va(! f'^c'=d'b | g'=d'e'b _a'=e'f'b | b'f'g'_e' _c''g'b'e' | a'e'g'b f'be'g | %259
 .[b=d'f'b']4 z2 .[abf'a']2 | .[gbe'g']4!8va)! z2 .[egbe']2 | .[=dfb=d']4 z2 .[fbd'f']2 | %262
 .[egbe']4 z2 .[cegc']2 |"^pesante" [B=dfb]2 z2 [B_dfb]2 z2 | [=A=ce=a]2 z2 [e_a_c'e']2 z2 | %265
 [=GBe=g]2 z2 [_GBe_g]2 z2 | [F=cef]2 z2 [_c=df_c']2 z2 | [E=GBe]2 z2 [E_GBe]2 z2 | %268
 [=DFB=d]2 z2 [_G=A_c=e_g]2 z2 |!p!"^dolce e sostenuto" [_B,=DF_A_B]8- | [B,DFAB]4 [B,=DFAB]4 | %271
 ([B,E_GB]4 [EGBe]4- | [EGBe]4 [B,EGB]4) | ([B,FAB]4 [FABf]4- | [FABf]4 [B,FAB]4) | %275
 ([B,_F=GB]4 [=GB_f=g]4- | [GBfg]4 [B,_F=GB]4) | [=A,E=A]4 [_A,E_A]4 | [=G,E=G]4 [DEd]4 | %279
 [=CE=c]4 [_CE_c]4 | [B,EB]4 ([EBe]4 | [=DB=d]4 [_DB_d]4 | [=C=GB=c]4 [_GBc_g]4) | (=d6 =c2) | %284
 [FA]8 |!pp! [=B,^D^F=A=B]8- | [B,DFAB]4 [=B,^D^F=A=B]4 | ([=B,=E^G=B]4 [EGB=e]4- | %288
 [EGBe]4 [=B,=E^G=B]4) | ([=B,^F=A=B]4 !>![^A,^D^F^A]4- | [A,DFA]4 [=A,=B,^F=A]4) | %291
 ([^G,=B,=E^G]4 [=A,^CE=A]4 | [=B,=E=B]4 [^CE^c]4) | ([^F,=B,^D^F]8 | [^G,=B,=E^G]4 [B,EG=B]4) | %295
!<(! ([^E,^G,^C^E]4 [^F,=A,^C^F]4 | [^G,^C^G]4!<)! [=A,C=A]4) |[K:bass] ([^D,^F,=B,^D]8 | %298
 [=E,^G,=B,=E]4 [G,B,E^G]4) | (([=D,=F,_B,=D]4 [_E,_G,_B,_E]4)) | (([=D,=F,_A,]4 [_E,_G,=A,]4)) | %301
[K:treble] EGB=D EGBD | EGBB, EGB=d | egb=d egbd | egbB egb=d' |!>(! (e'_d'_f'b _c'bd'=g | %306
 a=gb_f _g_f=g!>)!_d) | ed_fB _cBd=G | A=GB_F _GF=GD | A,CE=G, A,CEG, | A,CEE, A,CE=G | %311
 Ace=G AceG | AceE Acea |!>(! f'e'_g'=c' =d'c'e'=a | b=a=c'g _ag=a!>)!e |!>(! feg=c =dce=A | %316
 B=A=cG _AG=A!>)!E | B,=DF=A, B,DFA, | B,=DFF, B,DF=A | B=df=A BdfA | B=dfF Bdfb | %321
!>(! =g'f'a'=d' e'd'f'_c' | _d'_c'=d'a bac'!>)!f |!>(! _a_g=ae feg=c | =d=ce=A BAc!>)!_G | %325
!p! (!>![Bb]6 [Aa]2) | ([=G=g]6 [Ee]2) | ([=D=d]6 [Ff]2) | ([Ee]6 [_D_d]2) | (!>![=c=c']6 [Bb]2) | %330
 ([Aa]6 [Ff]2) | ([=E=e]6 [=G=g]2 | [Ff]6 [_E_e]2) | (!>![=d=d']6 [=c=c']2 | [Bb]6 [=G=g]2) | %335
 (!>![ee']6 [=d=d']2 | [=c=c']6 [Aa]2) | (!>![ff']6 [ee']2) | ([=d=d']6 [Bb]2 | [=A=a]6 [=c=c']2) | %340
 ([Bb]6 [=G=g]2 | [^F^f]6 [=A=a]2) | ([=G=g]6 [_E_e]2 | [=D=d]6 [=F=f]2) | ([Ee]6 [=C=c]2 | %345
 [=B,=B]4) ([_B,_B]4 | [=A,=A]4) ([_A,_A]4 | [=G,=G]4) ([_G,_G]4 | (3[F,F]4 [B,B]4 [E,E]4) | %349
 ([E,A,_CE]8 | [A,CEA]8 | [CEAc]8 | [Acea]8) |!p! ([F,_A,=D]8 | [=G,B,E-]8) | E4 (E4- | %356
 (3E4 =C4 =D4) ||!p! (3(E2 [E,B,]2 E2) (3(F2 [F,B,]2 F2) | (3(_G2 [_G,B,]2 G2) (3(A2 [A,B,]2 A2) | %359
 (3(B2 [B,EG]2 B2) (3(G2 [G,B,]2 G2) | (3(F2 [F,B,]2 F2) (3(E2 [E,B,]2 E2) | %361
 (3(A2 [A,E]2 A2) (3B2 [B,E]2 B2 | (3_c2 [CE]2 c2 (3d2 [DE]2 d2 | (3e2 [EAc]2 e2 (3c2 [CE]2 c2 | %364
 (3B2 [B,E]2 B2 (3A2 [A,E]2 A2 | (3=d2 [=D=A]2 d2 (3=e2 [=EA]2 e2 | %366
 (3^f2 [^F=A]2 f2 (3=g2 [=GA]2 g2 | (3=a2 [=A=d^f]2 a2 (3f2 [^FA]2 f2 | %368
 (3=e2 [=E=A]2 e2 (3=d2 [=DA]2 d2 | [_B=d=f_b]6 [_ABf_a]2 | [_GBe_g]6 [EGBe]2 | %371
 [_cea_c']6 [Acea]2 | [FBef]6 [B=dfb]2 |!p! (3(b2!<(! [Be]2 b2) (3(a2 [Ae]2 a2) | %374
 (3(g2 [Ge]2 g2) ([Ff]2- [Ff]/e/d/!<)!c/ | (B4-) B2- B/A/G/F/ | E2) z2 (3b2 [Be]2 b2 | %377
 (3e'2 [ea]2!<(! e'2 (3d'2 [da]2 d'2 | (3(c'2 [ca]2 c'2) ([Bb]2- [Bb]/a/g/!<)!_f/ | %379
 (e4-) e2- e/d/c/B/ | A2) z2 (3e'2 [ea]2 e'2 |!<(!!8va(! (3=a'2 [=a=d']2 a'2 (3=g'2 [=gd']2 g'2 | %382
 (3(^f'2 [^f=d']2 f'2) ([=e=e']2- [ee']/=d'/^c'/!<)!=b/ | =a4-) a2- (a/=g/^f/=e/ | %384
 =d2) z2 (3=a'2 [=a=d']2 a'2 | z2 [_b=d'=f'_b']2 [abf'a']4- | %386
 [abf'a']2 [g'b'e''g'']2 [e'g'b'e'']4- | [e'g'b'e'']2 [c'e'a'c'']2 [ac'e'a']4- | %388
 [ac'e'a']2 [fb=d'f']2 [bd'f'b']4- | [bd'f'b']2 [gbe'g']2 [egbe']4- | %390
 [egbe']2!8va)! [ceac']2 [Acea]4- | [Acea]2 [FB=df]2 [Bdfb]4- | [Bdfb]2 [GBeg]2 [EGBe]4- | %393
 [EGBe]2 [CEAc]2 [A,CEA]4- | [A,CEA]2 [F,B,=DF]2 [B,DFB]4 |!ff! .[_CEG_c]2 z2 .[_DGB_d]2 z2 | %396
 .[EGBe]2 z2 .[FB=df]2 z2 | .[GB_dg]2 z2 .[Adfa]2 z2 | .[Bdfb]2 z2 .[=cf=a=c']2 z2 | %399
 .[d_f_ad']2 z2 .[ea=c'e']2 z2 | .[_fa_c'_f']2 z2 .[gc'e'g']2 z2 | %401
!8va(! .[ac'e'a']2 z2 .[be'=g'b']2 z2 | (_c''_g'd''g' e''g'_f''g' | .g''2) z2 .[=ae'_g'=a']2 z2 | %404
 .[be'g'b']2 z2 .[=dfab=d']2 z2 |[K:Eb] .[egbe']2 z2 z4 | .[fbd'f']2 z2 z4 | %407
!ped! .[gbe'g']2!ped! z2 z4 | z8 |!ff! .[egbe']2 z2 z4 | .[g'b'e''g'']2!8va)! z2 z4 | %411
 .[E,G,B,E]2!ped-up! !fermata!z2 z4 |] %412
V:2
 .[B,,,B,,]2 | .[E,,E,]2 .[B,,,B,,]2 .[F,,F,]2 .[B,,,B,,]2 | %2
 .[G,,G,]2 .[B,,,B,,]2 .[A,,A,]2 .[B,,,B,,]2 | .[B,,B,]2 (A,B, .[C,C]2) .[B,,B,]2 | %4
 .[A,,A,]2 .[G,,G,]2 .[F,,F,]2 .[E,,E,]2 | .[=D,,=D,]2 .[F,,F,]2 .[B,,,B,,]2 (=C,D, | %6
 .[E,,E,]2) .[B,,,B,,]2 .[F,,F,]2 .[B,,,B,,]2 | .[G,,G,]2 .[B,,,B,,]2 .[A,,A,]2 .[B,,,B,,]2 | %8
 .[G,,G,]2 .[B,,,B,,]2 .[E,,E,]2 .[B,,,B,,]2 |[K:treble] .[=DF]2 .[EG]2 .[DF]2 .[EG]2 | %10
 .[=DF]2 .[_D_F]2 .[=CE]2 .[_C__E]2 | .[B,D]2 .[B,D]2 .[=A,=C]2 .[_A,_C]2 | %12
 .[=G,B,]2[K:bass] .[E,_G,]2 .[=D,F,]2 .[B,,,B,,]2 | .[E,,E,]2 .[B,,,B,,]2 .[F,,F,]2 .[B,,,B,,]2 | %14
 .[G,,G,]2 .[B,,,B,,]2 .[A,,A,]2 .[B,,,B,,]2 | .[B,,B,]2 (A,B, .[C,C]2) .[B,,B,]2 | %16
 .[A,,A,]2 .[G,,G,]2 .[F,,F,]2 .[E,,E,]2 | .[F,,F,]2 .[A,,A,]2 .[D,,D,]2 (E,F, | %18
 .[G,,G,]2) .[D,,D,]2 .[B,,B,]2 .[D,,D,]2 | .[A,,A,]2 .[D,,D,]2 .[C,C]2 .[D,,D,]2 | %20
 .[B,,B,]2 .[D,,D,]2 .[G,,G,]2 .[D,,D,]2 |[K:treble] .[FA]2 .[G__B]2 .[FA]2 .[GB]2 | %22
 .[FA]2 .[_F__A]2 .[EG]2 .[__E__G]2 | .[D_F]2 .[DF]2 .[=CE]2 .[_C__E]2 | %24
 .[B,D]2 .[B,D]2 .[=A,=C]2[K:bass] .[_A,_C]2 | .[_G,B,]2 .[A,_C]2 .[G,B,]2 .[A,C]2 | %26
 .[G,B,]2 z2 z4 |[K:treble] .[GB]2 .[Ac]2 .[GB]2 .[Ac]2 | .[GB]2 z2 z4 | .g2 .e2 .f2 .d2 | %30
 .e2 .c2 .d2 .B2 | .G2 .E2 .F2 .D2 | .E2 .C2 .D2 .B,2 | %33
[K:bass] .[D,F,]2 .[E,G,]2 .[D,F,]2 .[E,G,]2 | .[D,F,]2 z2 z4 | %35
[K:treble] .[DF]2 .[EG]2 .[DF]2 .[EG]2 | .[DF]2 z2 z4 | .d2 .B2 .=c2 ._A2 | .B2 .G2 .A2 .F2 | %39
[K:bass] .D2 .B,2 .=C2 .A,2 | .B,2 .G,2 .A,2 .F,2 | .[E,,_C,]2 .[_F,,D,]2 .[E,,C,]2 .[F,,D,]2 | %42
 .[E,,C,]2 z2 z4 | .[E,C]2 .[_F,D]2 .[E,C]2 .[F,D]2 | .[E,C]2 z2 z4 | %45
[K:treble] .e2 ._f2 .__d2 .__B2 | .G2 .E2 .__D2 .__B,2 | .E2 ._F2 .D2 ._B,2 | %48
[K:bass] .=G,2 ._F,2 .D,2 .B,,2 || .=F,,2 .D,,2 .A,,2 .D,,2 | .C,2 .D,,2 .E,2 .D,,2 | %51
 .D,2 (=C,D, .E,2) .D,2 | ._C,2 .B,,2 .A,,2 .G,,2 | .=F,,2 (B,,C, .D,2) .C,2 | %54
 .B,,2 .A,,2 .G,,2 .F,,2 | ._F,,2 (B,,C, .D,2) .C,2 | .B,,2 .A,,2 .G,,2 ._F,,2 | %57
 .E,,2 .G,,2 .__E,,2 .G,,2 | .D,,2 .G,,2 .D,2 .G,,2 | .=C,2 .G,,2 ._C,2 .G,,2 | %60
 .B,,2 .G,,2 .[__B,,__B,]2 .D,2 | .[A,,A,]2 .D,2 .[=G,,=G,]2 .D,2 | %62
 .[_G,,_G,]2 .D,2 .[=G,,=G,]2 .D,2 | .[A,,A,]2 .D,2 .[A,,A,]2 .=C,2 | .D,2 .G,2 .D,2 .F,2 | %65
!p! G,,4 G,,4 | G,,4 G,,4 | C,4 C,4 | A,,4 A,,4 | A,,4 A,,4 | D,4 D,4 | B,,4 B,,4 | B,,4 =D,4 | %73
 F,4 E,4 | _C,4 A,,4 | D,4 F,,4 | G,,4 G,,4 | G,,4 B,,4 | D,4 C,4 | A,,4 F,,4 | %80
 B,,4 z2!p! .[B,,,B,,]2 || .[E,,E,]2 .[B,,,B,,]2 .[F,,F,]2 .[B,,,B,,]2 | %82
 .[G,,G,]2 .[B,,,B,,]2 .[A,,A,]2 .[B,,,B,,]2 | .[B,,B,]2 (A,B, .[C,C]2) .[B,,B,]2 | %84
 .[A,,A,]2 .[G,,G,]2 .[F,,F,]2 .[E,,E,]2 |!>(! .[=D,,=D,]2 .[F,,F,]2 .[B,,,B,,]2 (=C,!>)!D, | %86
 .[E,,E,]2) .[B,,,B,,]2 .[F,,F,]2 .[B,,,B,,]2 | .[G,,G,]2 .[B,,,B,,]2 .[A,,A,]2 .[B,,,B,,]2 | %88
 .[G,,G,]2 .[B,,,B,,]2 .[E,,E,]2!p! .[B,,,B,,]2 |[K:treble] .[=DF]2 .[EG]2 .[DF]2 .[EG]2 | %90
 .[=DF]2 .[_D_F]2 .[=CE]2 .[_C__E]2 | .[B,D]2 .[B,D]2 .[=A,=C]2 .[_A,_C]2 | %92
 .[=G,B,]2[K:bass] .[E,_G,]2 .[=D,F,]2 .[B,,,B,,]2 | .[E,,E,]2 .[B,,,B,,]2 .[F,,F,]2 .[B,,,B,,]2 | %94
 .[G,,G,]2 .[B,,,B,,]2 .[A,,A,]2 .[B,,,B,,]2 | .[B,,B,]2 (A,B, .[C,C]2) .[B,,B,]2 | %96
 .[A,,A,]2 .[G,,G,]2 .[F,,F,]2 |[K:E] .[E,,E,]2 | .[D,,D,]2 .[F,,F,]2 .[D,,D,]2 (C,D, | %99
 .[E,,E,]2) .[B,,,B,,]2 .[G,,G,]2 .[B,,,B,,]2 | .[F,,F,]2 .[B,,,B,,]2 .[A,,A,]2 .[B,,,B,,]2 | %101
 .[G,,G,]2 .[B,,,B,,]2 .[E,,E,]2 .[B,,,B,,]2 | .[D,,D,]2 .[F,,F,]2 .[B,,,B,,]2 (C,D, | %103
 .[E,,E,]2) .[B,,,B,,]2 .[G,,G,]2 .[B,,,B,,]2 | .[F,,F,]2 .[B,,,B,,]2 .[A,,A,]2 .[B,,,B,,]2 | %105
 .[G,,G,]2 .[B,,,B,,]2 .[E,,E,]2 .[B,,,B,,]2 | .D,,2 .F,,2 .B,,,2 (C,,D,, | %107
!<(! .E,,2) .B,,2 .C,,2 .A,,2 | .B,,,2 .G,,2 .^A,,,2!<)! .=G,,2 | .B,,,2 .B,,2 .B,,,2 .=A,,2 | %110
 .G,,2 .B,,,2 .F,,2 .B,,,2 | .B,,2 .B,,,2 .A,,2 .B,,,2 | .G,,2 .B,,,2 .F,,2 .B,,,2 || z8 | %114
 !>!B,,8- | B,,8 | T=D,,8 | .C,2 .G,,2 .^D,2 .G,,2 | .^E,2 .G,,2 .F,2 .G,,2 | %119
 .G,2 (F,G, .=A,2) .G,2 | .F,2 .^E,2 .^D,2 .C,2 | [F,,F,]2 z2 z4 | (!>!C,8- | C,8 | T=E,,8 | %125
 .D,,2) z2 z4 | .D,2 .^A,,2 .^E,2 .A,,2 | .^^F,2 z2 .D,2 z2 | .^A,,2 z2 .^^F,,2 z2 | %129
 .[G,,G,]2 z2 z4 | !>!T^F,,8 | .^E,2 .^^F,2 .^^G,2 .^A,2 | %132
 .[^^G,^B,]2 .[^E,G,]2 .[^B,,E,]2 .[^^G,,B,,]2 | .[^A,,C,]2 z2 z4 | !>!TG,,8 | %135
 .^^F,2 .^^G,2 .^^A,2 .^B,2 | .[^^A,^^C]2 .[^^F,^^A,]2 .[^^C,^^F,]2 .[^^A,,^^C,]2 | %137
 .[^B,,D,]2 z2 z4 | ([=A,,=A,]6!f! .[G,,,G,,]2) | .[C,,C,]2 .[G,,,G,,]2 .[D,,D,]2 .[G,,,G,,]2 | %140
 .[=E,,=E,]2 .[G,,,G,,]2 .[F,,F,]2 .[G,,,G,,]2 | .[G,,G,]2 (F,G, .[=A,,=A,]2) .[G,,G,]2 | %142
 .[A,,A,]2 (G,A, .[B,,B,]2) .[A,,A,]2 | .[B,,B,]2 (A,B, .[C,C]2) .[B,,B,]2 | %144
 .[C,C]2 (B,C .[D,D]2) .[C,C]2 | .[D,D]2 .[C,C]2 .[E,E]2 .[D,D]2 | %146
 .[F,F]2 .[E,E]2 .[G,G]2 .[F,F]2 | .[A,A]2 .[G,G]2 .[A,A]2 .[G,G]2 | %148
 .[A,A]2 .[G,G]2 .[A,A]2 .[G,G]2 ||[K:Gb] .[_B,_B]2 .[=A,=A]2 .[B,B]2 .[A,A]2 | %150
 .[B,B]2 .[=A,=A]2 .[B,B]2 .[A,A]2 || .[=D,,=D,]2 .[F,,F,]2 .[B,,,B,,]2 (=C,D, | %152
 .[E,,E,]2) .[B,,,B,,]2 .[F,,F,]2 .[B,,,B,,]2 | .[G,,G,]2 .[B,,,B,,]2 .[A,,A,]2 .[B,,,B,,]2 | %154
 .[G,,G,]2 .[B,,,B,,]2 .[E,,E,]2 .[B,,,B,,]2 |[K:treble] .[=DF]2 .[EG]2 .[DF]2 .[EG]2 | %156
 .[=DF]2 .[_D_F]2 .[=CE]2 .[_C__E]2 | .[B,D]2 .[B,D]2 .[=A,=C]2[K:bass] .[_A,_C]2 | %158
 .[=G,B,]2 .[E,_G,]2 .[=D,F,]2!p! .[B,,,B,,]2 | .E,2 .B,,2 .F,2!p! .B,,2 | %160
 .G,2 .B,,2 .A,2[K:treble] .B2 | .e2 .B2 .f2 .B2 | .g2 .[Be]2 .b2 z2 | %163
[K:bass]!p! .[F,,F,]2 .[A,,A,]2 .[D,,D,]2 (E,F, | .[G,,G,]2) .[D,,D,]2 .[B,,B,]2 .[D,,D,]2 | %165
 .[A,,A,]2 .[D,,D,]2 .[C,C]2 .[D,,D,]2 | .[B,,B,]2 .[D,,D,]2 .[G,,G,]2 .[D,,D,]2 | %167
[K:treble] .[FA]2 .[G__B]2 .[FA]2 .[GB]2 | .[FA]2 .[_F__A]2 .[EG]2 .[__E__G]2 | %169
 .[D_F]2 .[DF]2 .[=CE]2 .[_C__E]2 | .[B,D]2 .[B,D]2 .[=A,=C]2[K:bass] .[_A,_C]2 | %171
 .[_G,B,]2 .[A,_C]2 .[G,B,]2 .[A,C]2 | .[G,B,]2 z2 z4 |[K:treble] .[GB]2 .[Ac]2 .[GB]2 .[Ac]2 | %174
 .[GB]2 z2 z4 | .g2 .e2 .f2 .d2 | .e2 .c2 .d2 .B2 | .G2 .E2 .F2 .D2 | .E2 .C2 .D2 .B,2 || %179
[K:C] .[^G,=B,]2 .[=A,=C]2 .[G,B,]2 .[A,C]2 | .[^G,B,]2 z2 z4 | .[^GB]2 .[Ac]2 .[GB]2 .[Ac]2 | %182
 .[^GB]2 z2 z4 | .^g2 .e2 .^f2 .^d2 | .e2 .^c2 .^d2 .B2 | .^G2 .E2 .^F2 .^D2 | .E2 .^C2 .^D2 .B,2 | %187
 .[A,=C]2 .[_B,_D]2 .[A,C]2 .[B,D]2 | .[A,C]2 z2 z4 | .[Ac]2 .[_B_d]2 .[Ac]2 .[Bd]2 | %190
 .[Ac]2 z2 z4 | .a2 .f2 .g2 .e2 | .f2 .d2 .e2 .c2 | FCDA, E_B,CG, | DA,_B,F, CG,A,E, | %195
 .f2 .d2 .e2 .c2 | .d2 ._B2 .c2 .A2 |[K:bass] DA,_B,F, CG,A,E, | _B,F,G,D, A,E,F,C, | %199
[K:treble] .d2 ._B2 .c2 .A2 | ._B2 .G2 .A2 .F2 |[K:bass] _B,F,G,D, A,E,F,C, | %202
 G,D,E,_B,, F,C,D,A,, || [C,,C,]2 z2 [E,G,CE]2 z2 | z2 .[E,,E,]2 .[F,,F,]2 .[G,,G,]2 | %205
 [_B,,,_B,,]2 z2 [G,CEG]2 z2 | [C,E,G,C]2 z2 [_B,EG_B]2 z2 | [A,,,A,,]2 z2 [E,A,^CE]2 z2 | %208
 z2 [^C,,^C,]2 [=D,,=D,]2 [E,,E,]2 | [^C,,,^C,,]2 z2 [E,A,^CE]2 z2 | %210
 [A,,^C,E,A,]2 z2 [E,A,^CE]2 z2 | [D,,D,]2 z2 [F,A,DF]2 z2 | z2 [F,,F,]2 [G,,G,]2 [A,,A,]2 | %213
 [C,,C,]2 z2 [A,DFA]2 z2 | [D,F,A,D]2 z2[K:treble] [CFAc]2 z2 | %215
[K:bass] [B,,,B,,]2 z2 [^F,B,^D^F]2 z2 | z2 [^D,,^D,]2 [=E,,=E,]2 [^F,,^F,]2 | %217
 [^D,,,^D,,]2 z2 [^F,B,^D^F]2 z2 | [B,,^D,^F,B,]2 z2 [A,^D^FA]2 z2 | %219
 [E,,E,]2 z2[K:treble] (g^deB) | z2[K:bass] .[E,,E,]2 .[^F,,^F,]2 .[G,,G,]2 | %221
 [=D,,=D,]2 z2[K:treble] (g^deB) | z2[K:bass] .[E,,E,]2 .[^F,,^F,]2 .[G,,G,]2 | %223
 [C,,C,]2 z2[K:treble] g^deB | z2[K:bass] .[E,,E,]2 .[^F,,^F,]2 .[G,,G,]2 | %225
 [G,,,G,,]2 z2[K:treble] g^deB | z2[K:bass] .[E,,E,]2 .[^F,,^F,]2 .[G,,G,]2 | %227
 [A,,,A,,]4[K:treble] c'^gae | z2 z2[K:bass] C^G,A,E, | ([C,C]2 [B,,B,]2 [_B,,_B,]2 [A,,A,]2 | %230
 [^G,,^G,]2 [=G,,=G,]2 [^F,,^F,]2 [=F,,=F,]2) | [^A,,,^A,,]4[K:treble] e'^b^c'g | %232
 z2 z2[K:bass] E^B,^CG, | ([=B,,=B,]2 [^A,,^A,]2 [=A,,=A,]2 [^G,,^G,]2 | %234
 [=G,,=G,]2 [^F,,^F,]2 [=F,,=F,]2 [E,,E,]2) | [B,,,B,,]4 .[=D,=D]2 .[B,,,B,,]2 | %236
 .[^C,^C]2 .[B,,,B,,]2 .[=C,=C]2 .[B,,,B,,]2 | .[B,,B,]2 .[B,,,B,,]2 .[^A,,^A,]2 .[B,,,B,,]2 | %238
 .[=A,,=A,]2 .[B,,,B,,]2 .[_A,,_A,]2 .[B,,,B,,]2 | .[G,,G,]2 .[B,,,B,,]2 .[^F,,^F,]2 .[B,,,B,,]2 | %240
 .[^E,,^E,]2 .[B,,,B,,]2 .[=E,,=E,]2 .[B,,,B,,]2 | .[_E,,_E,]2 .[B,,,B,,]2 .[D,,D,]2 .[B,,,B,,]2 | %242
 .[^C,,^C,]2 .[B,,,B,,]2 .[=C,,=C,]2 .[B,,,B,,]2 | [E,,E,]2 z2[K:treble] e^AB^G | %244
 z2[K:bass] [^G,,^G,]2 [=A,,=A,]2 [B,,B,]2 | [D,,D,]2 z2 [D,,,D,,]2 z2 | F^CDA, F,^C,D,A,, | %247
 [E,,E,]2 z2[K:treble] e^AB^G | z2[K:bass] [^G,,E,^G,]2 [=A,,^F,=A,]2 [B,,^G,B,]2 | %249
 [D,,D,]2 z2 [D,,,D,,]2 z2 | F^CDA, F,^C,D,A,, | .[E,,E,]2 .[B,,,B,,]2 .[E,,E,]2 .[B,,,B,,]2 | %252
 .[E,,E,]2 .[B,,,B,,]2 .[E,,E,]2 .[B,,,B,,]2 | .[_F,_F]2 .[_C,_C]2 .[F,F]2 .[C,C]2 | %254
 .[_F,_F]2 .[_C,_C]2 .[F,F]2 .[C,C]2 ||[K:Gb] .[E,,E,]2 .[B,,,B,,]2 .[F,,F,]2 .[B,,,B,,]2 | %256
 .[G,,G,]2 .[B,,,B,,]2 .[A,,A,]2 .[B,,,B,,]2 | .[B,,B,]2 (_A,B, .[_C,_C]2) .[B,,B,]2 | %258
 .[A,,A,]2 .[G,,G,]2 .[F,,F,]2 .[E,,E,]2 | .[B,,,=D,,F,,B,,]4 z2 .[D,,F,,B,,=D,]2 | %260
 .[E,,G,,B,,E,]4 z2 .[G,,B,,E,G,]2 | .[B,,=D,F,B,]4 z2 .[A,,D,F,A,]2 | %262
 .[G,,B,,E,G,]4 z2 .[E,G,B,E]2 | [=D,F,B,=D]2 z2 [_D,F,B,_D]2 z2 | %264
 [=C,E,=A,=C]2 z2 [_C,E,_A,_C]2 z2 | [B,,E,=G,B,]2 z2 [B,,E,_G,B,]2 z2 | %266
 [=A,,E,F,=A,]2 z2 [_A,,=D,F,_A,]2 z2 | [=G,,B,,E,=G,]2 z2 [_G,,B,,E,_G,]2 z2 | %268
 [F,,B,,=D,F,]2 z2 [=E,,_G,,=A,,_C,=E,]2 z2 | .=D,,2 .B,,,2 .F,,2 .B,,,2 | %270
 .A,,2 .B,,,2 ._C,2 .B,,,2 | .B,,2 (=A,,B,, ._C,2) .B,,2 | .A,,2 .G,,2 .F,,2 .E,,2 | %273
 .=D,,2 (=G,,A,, .B,,2) .A,,2 | ._G,,2 .F,,2 .E,,2 .=D,,2 | ._D,,2 (=G,,A,, .B,,2) .A,,2 | %276
 .=G,,2 ._F,,2 .E,,2 .D,,2 | .=C,,2 .E,,2 ._C,,2 .E,,2 | .B,,,2 .E,,2 .B,,2 .E,,2 | %279
 .=A,,2 .E,,2 ._A,,2 .E,,2 | .=G,,2 .E,,2 .[_G,,_G,]2 .B,,2 | .[F,,F,]2 .B,,2 .[=E,,=E,]2 .B,,2 | %282
 .[_E,,_E,]2 .B,,2 .[=E,,=E,]2 .B,,2 | .[F,,F,]2 .B,,2 .[F,,F,]2 .=A,,2 | .E,2 .B,,2 .=D,2 .B,,2 | %285
 .^D,,2 .=B,,,2 .^F,,2 .B,,,2 | .=A,,2 .=B,,,2 .^C,2 .B,,,2 | .=B,,2 (^A,,B,, .^C,2) .B,,2 | %288
 .=A,,2 .^G,,2 .^F,,2 .=E,,2 | (^D,,=E,, .^F,,2) .^D,,,2 .=B,,,2 | .^D,,2 .^F,,2 .=B,,2 .^D,2 | %291
 .[=E,,=E,]2 .=B,,2 .[^C,,^C,]2 .=A,,2 | .[^G,,,^G,,]2 .=E,,2 .[=A,,,=A,,]2 .E,,2 | %293
 .[=B,,,=B,,]2 (^A,,B,, .=C,2) .B,,2 | .=A,,2 .^G,,2 .^F,,2 .=E,,2 | %295
 .[^C,,^C,]2 .^G,,2 .[=A,,,=A,,]2 .^F,,2 | .[^E,,,^E,,]2 .^C,,2 .[^F,,,^F,,]2 .C,,2 | %297
 .[=B,,,=B,,]2 (=A,,B,, .^C,2) .B,,2 | .=A,,2 .^G,,2 .^F,,2 .=E,,2 | %299
 .[_B,,,_B,,]2 .=F,,2 .[_G,,,_G,,]2 ._E,,2 | ._C,,2 ._E,,2 .=C,,2 ._E,,2 | %301
 .[_G,B,]2 .[A,_C]2 .[G,B,]2 .[A,C]2 | .[G,B,]2 z2 z4 |!p! .E,,2 .B,,,2 .E,,2 .B,,,2 | %304
 .E,,2 z2 z4 |[K:treble] .=g2 ._d2 ._f2 .B2 | .d2 .=G2 .B2 ._F2 | .=G2 .D2[K:bass] ._F2 .B,2 | %308
 .D2 .=G,2 .B,2 ._F,2 | .[_C,E,]2 .[D,_F,]2 .[C,E,]2 .[D,F,]2 | .[C,E,]2 z2 z4 | %311
 .E,,2 .B,,,2 .E,,2 .B,,,2 | .E,,2 z2 z4 |[K:treble] .=a2 .e2 ._g2 .=c2 | .e2 .=A2 .=c2 .G2 | %315
 .=A2 .E2 .G2 .=C2 |[K:bass] .E2 .=A,2 .=C2 .G,2 | .[=D,F,]2 .[E,G,]2 .[D,F,]2 .[E,G,]2 | %318
 .[=D,F,]2 z2 z4 | .E,,2 .B,,,2 .E,,2 .B,,,2 | .E,,2 z2 z4 |[K:treble] ._c'2 .f2 .g2 .=d2 | %322
 .f2 ._c2 .=d2 .A2 | .=c2 ._G2 .=A2 .E2 | ._G2 .=C2 .E2 .=A,2 | %325
[K:bass] .[=D,,=D,]2 .[F,,F,]2 .[B,,,B,,]2 (=C,D, | %326
 .[E,,E,]2) .[B,,,B,,]2 .[=G,,=G,]2 .[B,,,B,,]2 | .[F,,F,]2 .[B,,,B,,]2 .[A,,A,]2 .[B,,,B,,]2 | %328
 .[=G,,=G,]2 .[B,,,B,,]2 .[F,,F,]2 .[B,,,B,,]2 | .[=E,,=E,]2 .[=G,,=G,]2 .[B,,,B,,]2 (=D,=E, | %330
 .[F,,F,]2) .[B,,,B,,]2 .[A,,A,]2 .[B,,,B,,]2 | .[=G,,=G,]2 .[B,,,B,,]2 .[B,,B,]2 .[B,,,B,,]2 | %332
 .[A,,A,]2 .[B,,,B,,]2 .[=G,,=G,]2 .[B,,,B,,]2 | .[^F,,^F,]2 .[=A,,=A,]2 .[B,,,B,,]2 (=E,^F, | %334
 .[=G,,=G,]2) .[B,,,B,,]2 .[B,,B,]2 .[B,,,B,,]2 | .[=G,,=G,]2 .[B,,B,]2 .[B,,,B,,]2 (F,=G, | %336
 .[_A,,_A,]2) .[B,,,B,,]2 .[=C,=C]2 .[B,,,B,,]2 | .[=A,,=A,]2 .[=C,=C]2 .[B,,,B,,]2 (=G,A, | %338
 .[B,,B,]2) .[B,,,B,,]2 .[=D,=D]2 .[B,,,B,,]2 | .[^C,^C]2 .[B,,,B,,]2 .[_E,_E]2 .[B,,,B,,]2 | %340
 .[=D,=D]2 .[B,,,B,,]2 .[B,,B,]2 .[B,,,B,,]2 | .[=A,,=A,]2 .[B,,,B,,]2 .[=C,=C]2 .[B,,,B,,]2 | %342
 .[B,,B,]2 .[B,,,B,,]2 .[=G,,=G,]2 .[B,,,B,,]2 | .[^F,,^F,]2 .[B,,,B,,]2 .[=A,,=A,]2 .[B,,,B,,]2 | %344
 .[=G,,=G,]2 .[B,,,B,,]2 .[E,,E,]2 .[B,,,B,,]2 | .[=D,,=D,]2 .[B,,,B,,]2 .[_D,,_D,]2 .[B,,,B,,]2 | %346
 .[=C,,=C,]2 .[B,,,B,,]2 .[_C,,_C,]2 .[B,,,B,,]2 | %347
 .[B,,,B,,]2 .[B,,,B,,]2 .[=A,,,=A,,]2 .[B,,,B,,]2 | %348
 .[_A,,,_A,,]2 .[B,,,B,,]2 .[=G,,,=G,,]2 .[B,,,B,,]2 |!<(! .[F,,,F,,]2 .B,,,2 .[F,,,F,,]2 .B,,,2 | %350
 .[F,,,F,,]2 .B,,,2 .[F,,,F,,]2 .B,,,2 | .[F,,,F,,]2 .B,,,2 .[F,,,F,,]2 .B,,,2 | %352
 .[F,,,F,,]2!<)! .B,,,2 .[F,,,F,,]2 .B,,,2 |!<(! =A,,,B,,,A,,,B,,, A,,,B,,,A,,,B,,, | %354
 =A,,,B,,,A,,,B,,, A,,,B,,,A,,,!<)!B,,, |{=A,,,B,,,_C,,} TB,,,8- | TB,,,8 || %357
 ([E,,,E,,]2 B,,,2) ([F,,,F,,]2 B,,,2) | %358
 ([_G,,,_G,,]2 B,,,2) ([A,,,A,,]2- [A,,,A,,]/B,,,/=C,,/=D,,/ | E,,4-) E,,2- (E,,/F,,/G,,/A,,/ | %360
 [B,,,B,,]2) z2 ([E,,,E,,]2 B,,,2) | ([A,,,A,,]2 E,,2) ([B,,,B,,]2 E,,2) | %362
 [_C,,_C,]2 E,,2 ([D,,D,]2- [D,,D,]/E,,/=F,,/=G,,/ | A,,4-) A,,2- (A,,/B,,/C,/D,/ | %364
 [E,,E,]2) z2 [A,,,A,,]2 E,,2 | [=D,,=D,]2 =A,,2 [=E,,=E,]2 A,,2 | %366
 [^F,,^F,]2 =A,,2 ([=G,,=G,]2- [G,,G,]/=A,,/=B,,/^C,/ | =D,4-) D,2- (D,/=E,/^F,/=G,/ | %368
 [=A,,=A,]2) z2 [=D,,=D,]2 =A,,2 | z2 [_B,,,=D,,=F,,_B,,]2 [D,,F,,B,,=D,]4- | %370
 [D,,F,,B,,D,]2 [E,,G,,B,,E,]2 [G,,B,,E,G,]4- | [G,,B,,E,G,]2 [A,,C,E,A,]2 [F,,A,,C,F,]4- | %372
 [F,,A,,C,F,]2 [B,,E,F,B,]2 [B,,,=D,,F,,B,,]4 | ([B,,B,]2 E,2) ([A,,A,]2 E,2) | %374
 [G,,G,]2 E,2 [F,,F,]2 E,2 | [E,,E,]2 [G,,B,,]2 [G,,G,]2 [B,,E,]2 | %376
 [A,,A,]2 [B,,E,]2 [B,,B,]2 E,2 | [E,E]2 A,2 [D,D]2 A,2 | [C,C]2 A,2 [B,,B,]2 A,2 | %379
 [A,,A,]2 [C,E,]2 [C,C]2 [E,A,]2 | [D,D]2 [E,A,]2 [E,E]2 A,2 |[K:treble] [=A,=A]2 =D2 [=G,=G]2 D2 | %382
[K:bass] [^F,^F]2 =D2 [=E,=E]2 D2 | [=D,=D]2 [^F,=A,]2 [F,^F]2 [A,D]2 | %384
[K:treble] [=G,=G]2 [=A,=D]2 [A,=A]2 D2 | [_B,=D=F_B]6 [DFB=d]2 | [E_GBe]6 [GBeg]2 | %387
 [A,CEA]6 [CEAc]2 | [=DFB=d]6 [B,DFB]2 | [E,G,B,E]6 [G,B,EG]2 |[K:bass] [A,,C,E,A,]6 [C,E,A,C]2 | %391
 [=D,F,B,=D]6 [B,,D,F,B,]2 | [E,,G,,B,,E,]6 [G,,B,,E,G,]2 | [A,,,C,,E,,A,,]6 [C,,E,,A,,C,]2 | %394
 [=D,,F,,B,,=D,]6 [B,,,D,,F,,B,,]2 | .[_C,,E,,G,,_C,]2 z2 .[G,,,B,,,_D,,G,,]2 z2 | %396
 .[E,,G,,B,,E,]2 z2 .[B,,,=D,,F,,B,,]2 z2 | .[G,,B,,_D,G,]2 z2 .[D,,F,,A,,D,]2 z2 | %398
 .[B,,D,F,B,]2 z2 .[F,,=A,,=C,F,]2 z2 | .[D,_F,_A,D]2 z2 .[A,,C,=E,A,]2 z2 | %400
 .[_F,A,_C_F]2 z2 .[C,E,G,C]2 z2 | .[A,CEA]2 z2 .[E,=G,B,E]2 z2 | (_C_G,DG, EG,_FG, | %403
 .G2) z2[K:treble]!ff! .[_CE_G_c]2 z2 | .[B,EGB]2 z2[K:bass] .[B,,=D,F,B,]2 z2 | %405
[K:Eb] .[E,G,B,E]2 z2 z4 | .[B,,D,F,B,]2 z2 z4 | .[E,,G,,B,,E,]2 z2 z4 | z8 | .[G,B,EG]2 z2 z4 | %410
[K:treble] .[Begb]2 z2 z4 |[K:bass] .[E,,,G,,,B,,,E,,]2 !fermata!z2 z4 |] %412
V:3
 x2 | x8 | x8 | x8 | x8 | b6 a2 | (g6 e2) | x8 | x8 | x8 | x8 | x8 | x8 | x8 | x8 | x8 | x8 | x8 | %18
 x8 | x8 | x8 | x8 | x8 | x8 | x8 | x8 | x8 | x8 | x8 | x8 | x8 | x8 | x8 | x8 | x8 | x8 | x8 | %37
 x8 | x8 | x8 | x8 |[K:bass] x8 | x4[K:treble] x4 | x8 | x8 | x8 | x8 | x8 | x4[K:bass] x4 || %49
[K:treble] x8 | x8 | x8 | x8 | x8 | x8 | x8 | x8 | x8 | x8 | x8 | x8 | x8 | x8 | A8 | [A_c]8 | x8 | %66
 x8 | x8 | x8 | x8 | x8 | x8 | x8 | x8 | x8 | x8 | x8 | x8 | x8 | x8 | x8 || x8 | x8 | x8 | x8 | %85
 x8 | x8 | x8 | x8 | x8 | x8 | x8 | x8 | x8 | x8 | x8 | x6 |[K:E] x2 | x8 | x8 | x8 | x8 | x8 | %103
 x8 | x8 | x8 |[K:bass] x8 | x8 | x8 | x8 | x8 | x8 | x8 ||[K:treble] x8 | x8 | x8 | x8 | x8 | x8 | %119
 x8 | x8 | x8 | x8 | x8 | x8 | x8 | x8 | x8 | x8 | x8 | x8 | x8 | x8 | x8 | x8 | x8 | x8 | x8 | %138
 x8 | x8 | x8 | x8 | x8 | x8 | x8 | x8 | x8 | x8 | x8 ||[K:Gb] x8 | x8 || x8 | x8 | x8 | x8 | x8 | %156
 x8 | x8 | x8 | x8 | x8 | x8 | x8 | x8 | x8 | x8 | x8 | x8 | x8 | x8 | x8 | x8 | x8 | x8 | x8 | %175
 x8 | x8 | x8 | x8 ||[K:C] x8 | x8 | x8 | x8 | x8 | x8 | x8 | x8 | x8 | x8 | x8 | x8 | x8 | x8 | %193
 x8 | x8 | x8 | x8 | x8 | x8 | x8 | x8 | x8 | x8 || e' x7 | x8 | g' x7 | _b' x7 | e' x7 | x8 | %209
 a' x7 | g' x7 | f' x7 | x8 | a' x7 |!8va(! =c'' x7 | ^f' x7 | x8 | b' x7 | a' x7 | %219
 g' x3!8va)! x4 | x8 | g' x7 | x8 | g' x7 | x8 | g' x7 | x8 |!8va(! x4!8va)! x4 | x8 | x8 | x8 | %231
!8va(! x4!8va)! x4 | x8 | x8 | x8 |!8va(! x8 | x8 | x8 | x8!8va)! | x8 | x8 | x8 | x8 | e' x7 | %244
 x8 | f' x7 | x8 | x8 | x8 | f' x7 | x8 | x8 | x8 | x8 | x8 ||[K:Gb] x4!8va(! x4 | x8 | x8 | x8 | %259
 x8 | x4!8va)! x4 | x8 | x8 | x8 | x8 | x8 | x8 | x8 | x8 | x8 | x8 | x8 | x8 | x8 | x8 | x8 | x8 | %277
 x8 | x8 | x8 | x8 | x8 | x8 | x8 | (_c6 B2) | x8 | x8 | x8 | x8 | x8 | x8 | x8 | x8 | x8 | x8 | %295
 x8 | x8 |[K:bass] x8 | x8 | x8 | x8 |[K:treble] x8 | x8 | x8 | x8 | x8 | x8 | x8 | x8 | x8 | x8 | %311
 x8 | x8 | x8 | x8 | x8 | x8 | x8 | x8 | x8 | x8 | x8 | x8 | x8 | x8 | x8 | x8 | x8 | x8 | x8 | %330
 x8 | x8 | x8 | x8 | x8 | x8 | x8 | x8 | x8 | x8 | x8 | x8 | x8 | x8 | x8 | x8 | x8 | x8 | x8 | %349
 x8 | x8 | x8 | x8 | x8 | x8 | x8 | x8 || x8 | x8 | x8 | x8 | x8 | x8 | x8 | x8 | x8 | x8 | x8 | %368
 x8 | x8 | x8 | x8 | x8 | x8 | x8 | x8 | x8 | x8 | x8 | x8 | x8 |!8va(! x8 | x8 | x8 | x8 | x8 | %386
 x8 | x8 | x8 | x8 | x2!8va)! x6 | x8 | x8 | x8 | x8 | x8 | x8 | x8 | x8 | x8 | x8 |!8va(! x8 | %402
 x8 | x8 | x8 |[K:Eb] x8 | x8 | x8 | x8 | x8 | x2!8va)! x6 | x8 |] %412
V:4
 x2 | x8 | x8 | x8 | x8 | x8 | x8 | B8- | B6 x2 | x8 | x8 | x8 | x8 | x8 | x8 | x8 | x8 | x8 | x8 | %19
 x8 | x8 | x8 | x8 | x8 | x8 | x8 | x8 | x8 | x8 | x8 | x8 | x8 | x8 | x8 | x8 | x8 | x8 | x8 | %38
 x8 | x8 | x8 |[K:bass] x8 | x4[K:treble] x4 | x8 | x8 | x8 | x8 | x8 | x4[K:bass] x4 || %49
[K:treble] [=FA_c]8- | [FAc]8 | x8 | x8 | x8 | x8 | x8 | x8 | x8 | x8 | x8 | x8 | x8 | x8 | %63
 (F4 G4) | (__E4 D4) |xGBDxG=A=C |xGBDxGB_F- | FGB_FxGcE |xA=cExA=B=D |xA=cExAc_G- | GA=cGxAdF | %71
xB=dFxB^c=E |xB=dFxBfd |xA=dBxGeB |xE_cGxCGE |xA,GDxD_cA |xGBDxG=A=C |xGBDxGdB |x=FBGxEcG | %79
xCAExA,EC |xF,EB,xB,AF || x8 | x8 | x8 | x6 B2- | B8- | B8 | B8- | B6 x2 | x8 | x8 | x8 | x8 | x8 | %94
 x8 | x8 | x6 |[K:E] x2 | x8 | x8 | x8 | x8 | [B,F]8 | [B,E]8 | B,8- | B,8 |[K:bass] F,8 | x8 | %108
 x8 | (E,4 D,4) | (E,4 D,4) | E,4 D,4 | (E,4 D,4) ||[K:treble] x8 | .E2 .B,2 .F2 .B,2 | .G2 z2 z4 | %116
 .F2 z2 .B,2 z2 | x8 | x8 | x8 | x/ x/ x/ x/ x/ x/ x/ x/ x/ x/ x/ x/ (3x/ x/ x/ A/B/ | %121
 .F2 .C2 .G2 .C2 | .A2 .C2 .B2 .C2 | .c2 (^Bc .=e2) .^d2 | .c2 .=B2 .=A2 .G2 | x8 | x8 | x8 | %128
 x/ x/ x/ x/ x/ x/ x/ x/ x/ x/ x/ x/ (3x/ x/ x/ =B/c/ | .B2 z2 .G2 .^A2 | x8 | x8 | %132
 x/ x/ x/ x/ x/ x/ x/ x/ x/ x/ x/ x/ (3x/ x/ x/ ^c/d/ | .^A2 .^B2 .c2 .d2 | x8 | x8 | %136
 x/ x/ x/ x/ x/ x/ x/ x/ x/ x/ x/ x/ (3x/ x/ x/ ^d/^e/ | .d2 z2 .^B2 .^^c2 | .d2 .^B2 .F2 x2 | x8 | %140
 x8 | x8 | x8 | x8 | x8 | x8 | x8 | x8 | x8 ||[K:Gb] x8 | x8 || [Bf]8 | B8 | B8- | B6 x2 | x8 | %156
 x8 | x8 | x8 | x8 | x8 | x8 | x8 | [_d_d']6 [_c_c']2 | ([Bb]6 [Gg]2) | d8 | d8 | x8 | x8 | x8 | %170
 x8 | x8 | x8 | x8 | x8 | x8 | x8 | x8 | x8 ||[K:C] x8 | x8 | x8 | x8 | x8 | x8 | x8 | x8 | x8 | %188
 x8 | x8 | x8 | x8 | x8 | x8 | x8 | x8 | x8 | x8 | x8 | x8 | x8 | x8 | x8 || x8 | x8 | x8 | x8 | %207
 x8 | x8 | x8 | x8 | x8 | x8 | x8 |!8va(! x8 | x8 | x8 | x8 | x8 | x4!8va)! x4 | x8 | x8 | x8 | %223
 x8 | x8 | x8 | x8 |!8va(! x4!8va)! x4 | x8 | x8 | x8 |!8va(! x4!8va)! x4 | x8 | x8 | x8 | %235
!8va(! x8 | x8 | x8 | x8!8va)! | x8 | x8 | x8 | x8 | x8 | x8 | x8 | x8 | x8 | x8 | x8 | x8 | x8 | %252
 x8 | x8 | x8 ||[K:Gb] x4!8va(! x4 | x8 | x8 | x8 | x8 | x4!8va)! x4 | x8 | x8 | x8 | x8 | x8 | %266
 x8 | x8 | x8 | x8 | x8 | x8 | x8 | x8 | x8 | x8 | x8 | x8 | x8 | x8 | x8 | x8 | x8 | %283
 ([=DFB]4 [EF]4) | (_C4 B,4) | x8 | x8 | x8 | x8 | x8 | x8 | x8 | x8 | x8 | x8 | x8 | x8 | %297
[K:bass] x8 | x8 | x8 | x8 |[K:treble] x8 | x8 | x8 | x8 | x8 | x8 | x8 | x8 | x8 | x8 | x8 | x8 | %313
 x8 | x8 | x8 | x8 | x8 | x8 | x8 | x8 | x8 | x8 | x8 | x8 | (f8 | B8) | B8- | B8 | (=g8 | =c8) | %331
 =c8- | c8 | (=a8 | =d8) | (b8 | e8) | (=c'8 | f8) | (f8 | B8) | B8- | B8 | B8- | B8 | _B4 _B,4- | %346
 B,4 B,4- | B,4 B,4- | B,4 B,4 | x8 | x8 | x8 | x8 | x8 | x8 | [A,_C]4 [=G,B,]4 | %356
 [^F,=A,]4 [=F,_A,]4 || x8 | x8 | x8 | x8 | x8 | x8 | x8 | x8 | x8 | x8 | x8 | x8 | x8 | x8 | x8 | %372
 x8 | x8 | x8 | x8 | x8 | x8 | x8 | x8 | x8 |!8va(! x8 | x8 | x8 | x8 | x8 | x8 | x8 | x8 | x8 | %390
 x2!8va)! x6 | x8 | x8 | x8 | x8 | x8 | x8 | x8 | x8 | x8 | x8 |!8va(! x8 | x8 | x8 | x8 | %405
[K:Eb] x8 | x8 | x8 | x8 | x8 | x2!8va)! x6 | x8 |] %412
V:5
 x2 | x8 | x8 | x8 | x8 | x8 | x8 | x8 | x8 |[K:treble] x8 | x8 | x8 | x2[K:bass] x6 | x8 | x8 | %15
 x8 | x8 | x8 | x8 | x8 | x8 |[K:treble] x8 | x8 | x8 | x6[K:bass] x2 | x8 | x8 |[K:treble] x8 | %28
 x8 | x8 | x8 | x8 | x8 |[K:bass] x8 | x8 |[K:treble] x8 | x8 | x8 | x8 |[K:bass] x8 | x8 | x8 | %42
 x8 | x8 | x8 |[K:treble] x8 | x8 | x8 |[K:bass] x8 || x8 | x8 | x8 | x8 | x8 | x8 | x8 | x8 | x8 | %58
 x8 | x8 | x8 | x8 | x8 | x8 | x8 |xD,B,,G,x=C,=A,,G, |xD,B,,G,x=D,B,,G, |xG,_F,B,xG,E,C | %68
xE,=C,A,x=D,=B,,A, |xE,=C,A,x=E,C,A, |xA,G,=CxA,F,D |xF,=D,B,x=E,^C,B, |xF,=D,B,x=DF,B, | %73
xFB,=DxEG,B, |xCE,A,xA,C,E, |xDG,A,xF,A,,D, |xD,B,,G,x=C,=A,,G, |xD,B,,G,xB,D,G, |xDG,B,xCE,G, | %79
xA,C,F,xF,A,,C, |xB,E,F, x4 || x8 | x8 | x8 | x8 | x8 | x8 | x8 | x8 |[K:treble] x8 | x8 | x8 | %92
 x2[K:bass] x6 | x8 | x8 | x8 | x6 |[K:E] x2 | x8 | x8 | x8 | x8 | x8 | x8 | x8 | x8 | x8 | x8 | %108
 x8 | x8 | x8 | x8 | x8 || x8 | x8 | x8 | %116
 x/ x/ x/ x/ x/ x/ x/ x/ x/ x/ x/ x/ (3x/ x/ x/ C,,/=D,,/ | .C,,2 z2 z4 | .C,2 .G,,2 .D,2 .G,,2 | %119
 .^E,2 z2 .C,2 z2 | .G,,2 z2 .^E,,2 z2 | x8 | x8 | x8 | %124
 x/ x/ x/ x/ x/ x/ x/ x/ x/ x/ x/ x/ (3x/ x/ x/ D,,/E,,/ | .D,2 .^A,,2 .^E,2 .A,,2 | %126
 .^^F,2 .^A,,2 .G,2 .A,,2 | .^A,2 (G,A, .B,2) .A,2 | .G,2 .^^F,2 .^E,2 .D,2 | x8 | %130
 x/ x/ x/ x/ x/ x/ x/ x/ x/ x/ x/ x/ (3x/ x/ x/ ^E,,/F,,/ | .^E,,2 z2 .^E,2 .^^F,2 | x8 | x8 | %134
 x/ x/ x/ x/ x/ x/ x/ x/ x/ x/ x/ x/ (3x/ x/ x/ ^^F,,/G,,/ | .^^F,,2 z2 .^^F,2 .^^G,2 | x8 | x8 | %138
 x8 | x8 | x8 | x8 | x8 | x8 | x8 | x8 | x8 | x8 | x8 ||[K:Gb] x8 | x8 || x8 | x8 | x8 | x8 | %155
[K:treble] x8 | x8 | x6[K:bass] x2 | x8 | x8 | x6[K:treble] x2 | x8 | x8 |[K:bass] x8 | x8 | x8 | %166
 x8 |[K:treble] x8 | x8 | x8 | x6[K:bass] x2 | x8 | x8 |[K:treble] x8 | x8 | x8 | x8 | x8 | x8 || %179
[K:C] x8 | x8 | x8 | x8 | x8 | x8 | x8 | x8 | x8 | x8 | x8 | x8 | x8 | x8 | x8 | x8 | x8 | x8 | %197
[K:bass] x8 | x8 |[K:treble] x8 | x8 |[K:bass] x8 | x8 || x8 | x8 | x8 | x8 | x8 | x8 | x8 | x8 | %211
 x8 | x8 | x8 | x4[K:treble] x4 |[K:bass] x8 | x8 | x8 | x8 | x4[K:treble] x4 | x2[K:bass] x6 | %221
 x4[K:treble] x4 | x2[K:bass] x6 | x4[K:treble] x4 | x2[K:bass] x6 | x4[K:treble] x4 | %226
 x2[K:bass] x6 | x4[K:treble] x4 | x4[K:bass] x4 | x8 | x8 | x4[K:treble] x4 | x4[K:bass] x4 | x8 | %234
 x8 | x8 | x8 | x8 | x8 | x8 | x8 | x8 | x8 | x4[K:treble] x4 | x2[K:bass] x6 | x8 | x8 | %247
 x4[K:treble] x4 | x2[K:bass] x6 | x8 | x8 | x8 | x8 | x8 | x8 ||[K:Gb] x8 | x8 | x8 | x8 | x8 | %260
 x8 | x8 | x8 | x8 | x8 | x8 | x8 | x8 | x8 | x8 | x8 | x8 | x8 | x8 | x8 | x8 | x8 | x8 | x8 | %279
 x8 | x8 | x8 | x8 | x8 | x8 | x8 | x8 | x8 | x8 | x8 | x8 | x8 | x8 | x8 | x8 | x8 | x8 | x8 | %298
 x8 | x8 | x8 | x8 | x8 | x8 | x8 |[K:treble] x8 | x8 | x4[K:bass] x4 | x8 | x8 | x8 | x8 | x8 | %313
[K:treble] x8 | x8 | x8 |[K:bass] x8 | x8 | x8 | x8 | x8 |[K:treble] x8 | x8 | x8 | x8 | %325
[K:bass] x8 | x8 | x8 | x8 | x8 | x8 | x8 | x8 | x8 | x8 | x8 | x8 | x8 | x8 | x8 | x8 | x8 | x8 | %343
 x8 | x8 | x8 | x8 | x8 | x8 | x8 | x8 | x8 | x8 | x8 | x8 | %355
 x/ x/ x/ x/ x/ x/ x/ x/ x/ x/ x/ x/ x/ x/ x/ x/ | %356
 x/ x/ x/ x/ x/ x/ x/ x/ x/ x/ x/ x/ x/ x/ =A,,,/B,,,/ || x8 | x8 | x8 | x8 | x8 | x8 | x8 | x8 | %365
 x8 | x8 | x8 | x8 | x8 | x8 | x8 | x8 | x8 | x8 | x8 | x8 | x8 | x8 | x8 | x8 |[K:treble] x8 | %382
[K:bass] x8 | x8 |[K:treble] x8 | x8 | x8 | x8 | x8 | x8 |[K:bass] x8 | x8 | x8 | x8 | x8 | x8 | %396
 x8 | x8 | x8 | x8 | x8 | x8 | x8 | x4[K:treble] x4 | x4[K:bass] x4 |[K:Eb] x8 | x8 | x8 | x8 | %409
 x8 |[K:treble] x8 |[K:bass] x8 |] %412

